X:1
T:China Boy
C:1922 - Phil Boutelje / Dick Winfree
Z:Copyright © www.realbook.site
L:1/4
M:4/4
I:linebreak $
K:F
V:1 treble nm=" " snm=" "
V:1
"F" A3 c | A3 c | A4- | A4 |$ A3 c | A3 c |"D7" A4- | A4 |$"G7" F3 A | F3 A | F4- | F4 |$ %12
"Bbm" F3 G | F3 G |"F" A4- | A4 ||$"Ab" c3 _A |"Eb7" B3 _E |"Ab" _A4- | A4 |$"Ab" c3 _A | %21
"Eb7" B3 _E |"Ab" _e4 |"C7" c4 |$"F" A3 c | A3 c |"Ddim7" d4 | f4 |$"F" A3 c |"C7" A2 A2 |"F" F4- | %31
 F3 z |] %32

